X:25
M:C
L:1/8
K:E_
[G,3/2E3/2]G/ (G3/2^F/4G/4) BGG>(^f|g>)(d e>)^F G2 G:|
(e/>f/)|g>f e>d cGG>c|B>GG>E F2 F (e/f/)|g>f e>d cGG(c/d/)|
e>dc>B ~G2 G(e/f/)|g>fe>d cGG>c|BGGE F2 F(E/F/)|

